X:1
T:Si' Beag, Si' Mo'r
M:3/4
L:1/8
R:waltz
K:D
de|<|f2 fe d2|d3 e d2|B4 A2|F4 AA|\
BABc d2|e4 de|f3 g fe|d4 ef|
B4 e2|A4 d2|F2 FG FE|D4 f2|\
B4 e2|A4 dc|d2 g2 e2|f4 ::
de|f3 e d2|edef a2|b4 a2|f4 ed|\
e4 ag|f4 ed|d4 B2|B4 A2|
F4 EF|D4 f2|B4 e2|A4 fa|\
bagfed|e4 dc|d4 d2| d4 :|
